images/USDe.svg

<svg height="250" viewBox="0 0 250 250" width="250" xmlns="http://www.w3.org/2000/svg" xmlns:xlink="http://www.w3.org/1999/xlink"><linearGradient id="a" gradientUnits="userSpaceOnUse" x1="67.11910967797" x2="182.88077013453" y1="24.74608108" y2="225.25379433797"><stop offset="0" stop-color="#0095d7"/><stop offset="1" stop-color="#0072aa"/></linearGradient><path d="m249.511719 125c0 68.765625-55.746094 124.511719-124.511719 124.511719s-124.511719-55.746094-124.511719-124.511719 55.746094-124.511719 124.511719-124.511719 124.511719 55.746094 124.511719 124.511719zm0 0" fill="#fff"/><path d="m240.746094 125c0 63.925781-51.820313 115.746094-115.746094 115.746094s-115.746094-51.820313-115.746094-115.746094 51.820313-115.746094 115.746094-115.746094 115.746094 51.820313 115.746094 115.746094zm0 0" fill="url(#a)"/><path d="m172.320312 139.289062c-1.855468-3.867187-4.546874-7.273437-7.886718-9.960937-3.898438-3.066406-8.265625-5.488281-12.929688-7.171875-5.292968-1.984375-11.269531-3.90625-17.769531-5.636719-5.0625-1.265625-9.628906-2.496093-13.566406-3.660156-3.554688-.988281-6.992188-2.351563-10.253907-4.070313-2.679687-1.382812-5.015624-3.34375-6.835937-5.742187-1.710937-2.359375-2.578125-5.292969-2.578125-8.730469 0-5.816406 2.207031-10.414062 6.550781-13.671875 4.136719-3.101562 10.039063-4.609375 18.042969-4.609375 4.316406 0 8.613281.546875 12.792969 1.621094 3.914062.996094 7.75 2.296875 11.464843 3.886719 3.136719 1.328125 6.160157 2.910156 9.042969 4.726562.59375.386719 1.144531.757813 1.660157 1.109375.171874.117188.382812.15625.585937.105469.207031-.039063.386719-.171875.488281-.359375l7.910156-14.527344c.191407-.34375.074219-.773437-.261718-.976562-5.554688-3.375-11.429688-6.199219-17.535156-8.433594-5.609376-2.050781-11.457032-3.363281-17.40625-3.90625l-.511719-.046875v-23.144531c0-.40625-.328125-.734375-.730469-.734375h-16.835938c-.40625 0-.734374.328125-.734374.734375v23.667968c-2.558594.417969-5.082032 1.007813-7.5625 1.765626-5.359376 1.601562-10.378907 4.1875-14.800782 7.617187-4.164062 3.296875-7.503906 7.511719-9.765625 12.320313-2.34375 4.914062-3.527343 10.65625-3.527343 17.089843 0 4.804688.71875 8.945313 2.152343 12.308594 1.457031 3.398437 3.644531 6.433594 6.414063 8.886719 3.328125 2.890625 7.089844 5.234375 11.152344 6.941406 5.355468 2.277344 10.871093 4.160156 16.5 5.636719 5.097656 1.464843 10.011718 2.878906 14.585937 4.222656 3.980469 1.125 7.859375 2.597656 11.585937 4.394531 3.417969 1.714844 6.132813 3.78125 8.054688 6.144532 2.117188 2.648437 3.234375 5.957031 3.15625 9.34375 0 11.089843-8.570312 16.949218-24.785156 16.949218-5.410156.011719-10.796875-.65625-16.039063-1.992187-4.820312-1.207031-9.527343-2.835938-14.066406-4.859375-3.769531-1.675782-7.425781-3.585938-10.949219-5.722656-1.105468-.683594-2.105468-1.328126-2.96875-1.921876-.175781-.117187-.390625-.15625-.59375-.101562-.214844.042969-.390625.183594-.488281.375l-8.101563 15.800781c-.175781.332031-.0625.742188.253907.945313 7.203125 4.648437 15.019531 8.261718 23.226562 10.742187 5.40625 1.660157 10.945313 2.867188 16.554688 3.605469l-.003907 21.542969c0 .402343.328126.730469.734376.730469h16.820312c.40625 0 .734375-.328126.734375-.730469v-20.875l.578125-.042969c4.117188-.292969 8.199219-.925781 12.207031-1.886719 5.382813-1.242187 10.488281-3.460937 15.074219-6.535156 4.261719-2.9375 7.742188-6.871094 10.136719-11.457031 2.496093-4.703125 3.761719-10.503906 3.761719-17.234375.03125-5.75-.894532-10.621094-2.734376-14.472657zm0 0" fill="#fff"/></svg>

<svg xmlns="http://www.w3.org/2000/svg" xmlns:xlink="http://www.w3.org/1999/xlink" width="250px" height="250px" viewBox="0 0 250 250" version="1.1">
<defs>
<linearGradient id="linear0" gradientUnits="userSpaceOnUse" x1="137.460007" y1="50.68" x2="374.540009" y2="461.320007" gradientTransform="matrix(0.488281,0,0,0.488281,0,0)">
<stop offset="0" style="stop-color:rgb(0%,58.431375%,84.313726%);stop-opacity:1;"/>
<stop offset="1" style="stop-color:rgb(0%,44.705883%,66.666669%);stop-opacity:1;"/>
</linearGradient>
</defs>
<g id="surface1">
<path style=" stroke:none;fill-rule:nonzero;fill:rgb(100%,100%,100%);fill-opacity:1;" d="M 249.511719 125 C 249.511719 193.765625 193.765625 249.511719 125 249.511719 C 56.234375 249.511719 0.488281 193.765625 0.488281 125 C 0.488281 56.234375 56.234375 0.488281 125 0.488281 C 193.765625 0.488281 249.511719 56.234375 249.511719 125 Z M 249.511719 125 "/>
<path style=" stroke:none;fill-rule:nonzero;fill:url(#linear0);" d="M 240.746094 125 C 240.746094 188.925781 188.925781 240.746094 125 240.746094 C 61.074219 240.746094 9.253906 188.925781 9.253906 125 C 9.253906 61.074219 61.074219 9.253906 125 9.253906 C 188.925781 9.253906 240.746094 61.074219 240.746094 125 Z M 240.746094 125 "/>
<path style=" stroke:none;fill-rule:nonzero;fill:rgb(100%,100%,100%);fill-opacity:1;" d="M 172.320312 139.289062 C 170.464844 135.421875 167.773438 132.015625 164.433594 129.328125 C 160.535156 126.261719 156.167969 123.839844 151.503906 122.15625 C 146.210938 120.171875 140.234375 118.25 133.734375 116.519531 C 128.671875 115.253906 124.105469 114.023438 120.167969 112.859375 C 116.613281 111.871094 113.175781 110.507812 109.914062 108.789062 C 107.234375 107.40625 104.898438 105.445312 103.078125 103.046875 C 101.367188 100.6875 100.5 97.753906 100.5 94.316406 C 100.5 88.5 102.707031 83.902344 107.050781 80.644531 C 111.1875 77.542969 117.089844 76.035156 125.09375 76.035156 C 129.410156 76.035156 133.707031 76.582031 137.886719 77.65625 C 141.800781 78.652344 145.636719 79.953125 149.351562 81.542969 C 152.488281 82.871094 155.511719 84.453125 158.394531 86.269531 C 158.988281 86.65625 159.539062 87.027344 160.054688 87.378906 C 160.226562 87.496094 160.4375 87.535156 160.640625 87.484375 C 160.847656 87.445312 161.027344 87.3125 161.128906 87.125 L 169.039062 72.597656 C 169.230469 72.253906 169.113281 71.824219 168.777344 71.621094 C 163.222656 68.246094 157.347656 65.421875 151.242188 63.1875 C 145.632812 61.136719 139.785156 59.824219 133.835938 59.28125 L 133.324219 59.234375 L 133.324219 36.089844 C 133.324219 35.683594 132.996094 35.355469 132.59375 35.355469 L 115.757812 35.355469 C 115.351562 35.355469 115.023438 35.683594 115.023438 36.089844 L 115.023438 59.757812 C 112.464844 60.175781 109.941406 60.765625 107.460938 61.523438 C 102.101562 63.125 97.082031 65.710938 92.660156 69.140625 C 88.496094 72.4375 85.15625 76.652344 82.894531 81.460938 C 80.550781 86.375 79.367188 92.117188 79.367188 98.550781 C 79.367188 103.355469 80.085938 107.496094 81.519531 110.859375 C 82.976562 114.257812 85.164062 117.292969 87.933594 119.746094 C 91.261719 122.636719 95.023438 124.980469 99.085938 126.6875 C 104.441406 128.964844 109.957031 130.847656 115.585938 132.324219 C 120.683594 133.789062 125.597656 135.203125 130.171875 136.546875 C 134.152344 137.671875 138.03125 139.144531 141.757812 140.941406 C 145.175781 142.65625 147.890625 144.722656 149.8125 147.085938 C 151.929688 149.734375 153.046875 153.042969 152.96875 156.429688 C 152.96875 167.519531 144.398438 173.378906 128.183594 173.378906 C 122.773438 173.390625 117.386719 172.722656 112.144531 171.386719 C 107.324219 170.179688 102.617188 168.550781 98.078125 166.527344 C 94.308594 164.851562 90.652344 162.941406 87.128906 160.804688 C 86.023438 160.121094 85.023438 159.476562 84.160156 158.882812 C 83.984375 158.765625 83.769531 158.726562 83.566406 158.78125 C 83.351562 158.824219 83.175781 158.964844 83.078125 159.15625 L 74.976562 174.957031 C 74.800781 175.289062 74.914062 175.699219 75.230469 175.902344 C 82.433594 180.550781 90.25 184.164062 98.457031 186.644531 C 103.863281 188.304688 109.402344 189.511719 115.011719 190.25 L 115.007812 211.792969 C 115.007812 212.195312 115.335938 212.523438 115.742188 212.523438 L 132.5625 212.523438 C 132.96875 212.523438 133.296875 212.195312 133.296875 211.792969 L 133.296875 190.917969 L 133.875 190.875 C 137.992188 190.582031 142.074219 189.949219 146.082031 188.988281 C 151.464844 187.746094 156.570312 185.527344 161.15625 182.453125 C 165.417969 179.515625 168.898438 175.582031 171.292969 170.996094 C 173.789062 166.292969 175.054688 160.492188 175.054688 153.761719 C 175.085938 148.011719 174.160156 143.140625 172.320312 139.289062 Z M 172.320312 139.289062 "/>
</g>
</svg>
